X:210
T:Wi' A Hundred Pipers #2 
C:Joe Buchanan's Scottish Tome - Page 283.1
I:283 1
R:Jig
Z:Carl Allison
L:1/8
M:6/8
K:Amaj
A>B | c2E EFE|F2A A2f|e2c cBA|BcB BAB|
c2E EFE|F2A A2f|e2c BcB|A2 A A2 :|
c>d | e2e ece|f2a agf|e2c cBA|BcB Bcd|
e2e efg|a2 a agf|e2c BcB|A2 A Acd |
e2 e ece | f2 a agf | e2 c cBA | c2 B BAB |
c2 D DFD | F2 A A2 f | e2 c BcB | (A3 A2) |]

